X:353
T: Dongfang de taiyang weiwei xiao
N: C1854
O: China, Qinghai Yushu
S: I, 222]
N: Zang
R: Shange]
M: 2/4
L: 1/16
K: D
e2e2e2d2 | d2B2e4 | d2e2d4- | d8
A2Bde4 | e2ded2B2 | e2edB2BA | B8- | B8
A2A2Bde2 | e2B2d2dB | A2A2B2e2 | d4e2dB | d3eB2BA | B8- | B8
A2A2B2d2 | e2B2d2dB | A4B2e2 | d4edB2 | d3eB2BA | B8- | B8

